public/about-feature-01.svg

<svg width="101" height="101" viewBox="0 0 101 101" fill="none" xmlns="http://www.w3.org/2000/svg">
<g clip-path="url(#clip0_6511_2220)">
<g clip-path="url(#clip1_6511_2220)">
<mask id="mask0_6511_2220" style="mask-type:luminance" maskUnits="userSpaceOnUse" x="0" y="0" width="100" height="100">
<path d="M99.623 0.189941H0.78125V99.0317H99.623V0.189941Z" fill="white"/>
</mask>
<g mask="url(#mask0_6511_2220)">
<path d="M63.6395 7.33276H49.3538L32.2109 24.4756L40.7824 29.4756L49.3538 20.9042L67.2109 38.7613L73.6395 46.6185L82.9252 48.0471L87.2109 40.1899V13.047L80.0681 7.33276H63.6395Z" fill="#FDC040"/>
<path d="M93.0592 20.7445H89.1945L89.1982 13.8354C89.2005 9.19687 85.4292 5.42108 80.79 5.41881L51.4584 5.40222H51.4547C49.7851 5.40222 48.2151 6.05226 47.0341 7.23318L3.24491 51.0223C1.65601 52.6113 0.78125 54.7235 0.78125 56.9708C0.78125 59.2181 1.65601 61.3302 3.24491 62.9192L31.6625 91.3368C33.3027 92.9769 35.4571 93.7966 37.6108 93.7966C39.7654 93.7966 41.9198 92.9769 43.56 91.3368L71.13 63.7668C71.8841 63.0126 71.8841 61.7902 71.13 61.0369C70.3758 60.2828 69.1534 60.2828 68.3994 61.0369L40.8294 88.6069C39.055 90.3813 36.1675 90.3813 34.3931 88.6069L5.97551 60.1893C5.11584 59.3296 4.64225 58.1863 4.64225 56.9708C4.64225 55.7552 5.11584 54.6119 5.97551 53.7522L49.764 9.96379C50.2157 9.51208 50.816 9.26322 51.4547 9.26322H51.4562L80.7878 9.27982C83.2974 9.28056 85.3388 11.3242 85.3372 13.8338L85.3282 30.0109H76.6327C75.8838 30.0109 75.2058 29.7046 74.7157 29.2115C75.5234 28.8653 76.2805 28.3653 76.9388 27.7071C79.7131 24.9319 79.7131 20.4179 76.9388 17.6436C74.1637 14.8685 69.6497 14.8685 66.8745 17.6436C64.1002 20.4179 64.1002 24.9319 66.8745 27.7071C67.9031 28.7356 69.1715 29.3819 70.5011 29.6482C71.446 32.1148 73.8372 33.8719 76.6327 33.8719H85.326L85.3207 43.1262C85.3207 43.7649 85.0718 44.3645 84.6201 44.8153L79.3202 50.1159C78.5661 50.8701 78.5661 52.0925 79.3202 52.8466C80.0737 53.5999 81.296 53.5999 82.0501 52.8466L87.3507 47.5461C88.5301 46.3658 89.181 44.7973 89.1817 43.1285L89.187 33.8719H93.0592C96.6782 33.8719 99.623 30.9279 99.623 27.3082C99.623 23.6892 96.6782 20.7445 93.0592 20.7445ZM69.6051 20.3735C70.2401 19.7385 71.0734 19.4218 71.9074 19.4218C72.7407 19.4218 73.574 19.7392 74.209 20.3735C74.4095 20.5748 74.5754 20.7972 74.7127 21.0318C72.5937 21.6811 70.9287 23.3771 70.3201 25.5142C70.0644 25.3716 69.8224 25.1943 69.6051 24.9772C68.336 23.7073 68.336 21.6426 69.6051 20.3735ZM93.0592 30.0109H89.1892L89.1922 24.6055H93.0592C94.5494 24.6055 95.762 25.8181 95.762 27.3082C95.762 28.7982 94.5494 30.0109 93.0592 30.0109Z" fill="#3BB77E"/>
<path d="M31.9422 54.1098C32.1798 54.9641 32.9558 55.5229 33.8003 55.5229C33.9723 55.5229 34.1465 55.5003 34.3192 55.4521L54.1371 49.9358C55.1641 49.6499 55.7651 48.5852 55.4793 47.5581C55.1935 46.5318 54.1295 45.9308 53.1016 46.2165L33.2838 51.7321C32.2575 52.0186 31.6565 53.0826 31.9422 54.1098Z" fill="#3BB77E"/>
<path d="M40.6673 56.657C39.5919 57.7324 39 59.1614 39 60.6824C39 62.2027 39.5919 63.6317 40.6673 64.7072C41.7773 65.8164 43.2343 66.3714 44.6919 66.3714C46.1496 66.3714 47.6073 65.8164 48.7173 64.7072C50.9366 62.4877 50.9366 58.8763 48.7173 56.657C46.498 54.4377 42.8866 54.4377 40.6673 56.657ZM45.9867 61.9764C45.2726 62.6906 44.1113 62.6906 43.3971 61.9764C43.051 61.6312 42.861 61.1712 42.861 60.6817C42.861 60.193 43.0517 59.733 43.3971 59.3869C43.7546 59.0302 44.2236 58.8514 44.6919 58.8514C45.161 58.8514 45.63 59.0302 45.9867 59.3869C46.7009 60.101 46.7009 61.2632 45.9867 61.9764Z" fill="#3BB77E"/>
<path d="M49.6715 45.1631C51.8908 42.9431 51.8908 39.3324 49.6715 37.1131C48.5962 36.0378 47.1664 35.4458 45.6461 35.4458C44.1258 35.4458 42.6961 36.0378 41.6215 37.1131C39.4022 39.3324 39.4022 42.9431 41.6215 45.1631C42.7315 46.2724 44.1885 46.8274 45.6461 46.8274C47.1038 46.8274 48.5615 46.2724 49.6715 45.1631ZM44.3514 39.8429C44.6975 39.4968 45.1575 39.3068 45.6461 39.3068C46.1355 39.3068 46.5955 39.4968 46.9409 39.8429C47.6551 40.5571 47.6551 41.7184 46.9409 42.4325C46.2275 43.1467 45.0655 43.1467 44.3514 42.4325C43.6379 41.7184 43.6379 40.5571 44.3514 39.8429Z" fill="#3BB77E"/>
<path d="M19.9807 50.1206C19.2267 49.3665 18.0043 49.3665 17.2501 50.1206L11.7648 55.6059C11.4028 55.9679 11.1992 56.4588 11.1992 56.9708C11.1992 57.4829 11.4028 57.9738 11.7648 58.3358L36.2453 82.8162C36.6216 83.1925 37.1163 83.3811 37.6101 83.3811C38.1041 83.3811 38.598 83.1925 38.9751 82.8162L75.5761 46.2143C76.3303 45.4602 76.3303 44.2378 75.5761 43.4838L51.0966 19.004C50.7346 18.642 50.2436 18.4385 49.7316 18.4385C49.2196 18.4385 48.7286 18.642 48.3667 19.004L28.171 39.1996C27.417 39.9538 27.417 41.1762 28.171 41.9302C28.9244 42.6836 30.1468 42.6836 30.9008 41.9302L49.7316 23.0996L71.4814 44.8493L37.6101 78.7206L15.8603 56.9708L19.9807 52.8505C20.7341 52.0963 20.7348 50.8746 19.9807 50.1206Z" fill="#3BB77E"/>
<path d="M75.2235 55.0109C74.7153 55.0109 74.2175 55.2174 73.8585 55.5764C73.4997 55.9354 73.293 56.4339 73.293 56.9413C73.293 57.4489 73.4997 57.9473 73.8585 58.3063C74.2175 58.6653 74.7153 58.8719 75.2235 58.8719C75.731 58.8719 76.2287 58.6653 76.5884 58.3063C76.9474 57.9473 77.154 57.4489 77.154 56.9413C77.154 56.4339 76.9474 55.9354 76.5884 55.5764C76.2287 55.2174 75.731 55.0109 75.2235 55.0109Z" fill="#3BB77E"/>
<path d="M25.4391 47.3892C25.8004 47.0303 26.0055 46.534 26.0055 46.0243C26.0055 45.5167 25.8004 45.0206 25.4391 44.6593C25.0802 44.3005 24.584 44.0938 24.075 44.0938C23.5667 44.0938 23.069 44.3005 22.7101 44.6593C22.3504 45.0183 22.1445 45.5167 22.1445 46.0243C22.1445 46.534 22.3504 47.0303 22.7101 47.3892C23.0705 47.7505 23.5667 47.9547 24.075 47.9547C24.584 47.9547 25.0802 47.7505 25.4391 47.3892Z" fill="#3BB77E"/>
</g>
</g>
</g>
<defs>
<clipPath id="clip0_6511_2220">
<rect width="100" height="100" fill="white" transform="translate(0.78125 0.189941)"/>
</clipPath>
<clipPath id="clip1_6511_2220">
<rect width="100" height="100" fill="white" transform="translate(0.78125 0.189941)"/>
</clipPath>
</defs>
</svg>

<svg xmlns="http://www.w3.org/2000/svg" width="101" height="101" fill="none"><g clip-path="url(#a)"><g clip-path="url(#b)"><mask id="c" width="100" height="100" x="0" y="0" maskUnits="userSpaceOnUse" style="mask-type:luminance"><path fill="#fff" d="M99.623.19H.781v98.842h98.842z"/></mask><g mask="url(#c)"><path fill="#FDC040" d="M63.64 7.333H49.354L32.21 24.476l8.571 5 8.572-8.572L67.21 38.761l6.429 7.857 9.285 1.43 4.286-7.858V13.047l-7.143-5.714z"/><path fill="#3BB77E" d="M93.06 20.745h-3.865l.003-6.91c.003-4.638-3.769-8.414-8.408-8.416l-29.332-.017h-.003c-1.67 0-3.24.65-4.42 1.831l-43.79 43.79A8.36 8.36 0 0 0 .78 56.97c0 2.247.875 4.36 2.464 5.948l28.418 28.418a8.39 8.39 0 0 0 5.948 2.46c2.154 0 4.309-.82 5.949-2.46l27.57-27.57a1.93 1.93 0 1 0-2.73-2.73l-27.57 27.57a4.556 4.556 0 0 1-6.437 0L5.976 60.189a4.52 4.52 0 0 1-1.334-3.218c0-1.216.474-2.36 1.334-3.219L49.764 9.964a2.38 2.38 0 0 1 1.69-.7h.002l29.332.016a4.557 4.557 0 0 1 4.55 4.554l-.01 16.177h-8.695a2.7 2.7 0 0 1-1.917-.8 7.1 7.1 0 0 0 2.223-1.504c2.774-2.775 2.774-7.29 0-10.063a7.124 7.124 0 0 0-10.064 0c-2.775 2.774-2.775 7.288 0 10.063a7.1 7.1 0 0 0 3.626 1.941 6.57 6.57 0 0 0 6.132 4.224h8.693l-.005 9.254a2.37 2.37 0 0 1-.7 1.69l-5.3 5.3a1.93 1.93 0 0 0 2.73 2.73l5.3-5.3a6.21 6.21 0 0 0 1.83-4.417l.006-9.257h3.872a6.57 6.57 0 0 0 6.564-6.564 6.57 6.57 0 0 0-6.564-6.564m-23.455-.372a3.24 3.24 0 0 1 2.302-.951c.834 0 1.667.317 2.302.951q.299.305.504.659a6.59 6.59 0 0 0-4.393 4.482 3.2 3.2 0 0 1-.715-.537 3.26 3.26 0 0 1 0-4.603m23.454 9.638h-3.87l.003-5.405h3.867a2.706 2.706 0 0 1 2.703 2.702 2.706 2.706 0 0 1-2.703 2.703"/><path fill="#3BB77E" d="M31.942 54.11a1.93 1.93 0 0 0 2.377 1.342l19.818-5.516a1.931 1.931 0 0 0-1.035-3.72l-19.818 5.516a1.93 1.93 0 0 0-1.342 2.378M40.667 56.657A5.65 5.65 0 0 0 39 60.682c0 1.52.592 2.95 1.667 4.025a5.68 5.68 0 0 0 4.025 1.664 5.68 5.68 0 0 0 4.025-1.664 5.7 5.7 0 0 0 0-8.05 5.7 5.7 0 0 0-8.05 0m5.32 5.32a1.833 1.833 0 0 1-3.126-1.295 1.829 1.829 0 0 1 1.83-1.83c.47 0 .939.178 1.296.535a1.833 1.833 0 0 1 0 2.59M49.672 45.163a5.7 5.7 0 0 0 0-8.05 5.66 5.66 0 0 0-4.026-1.667c-1.52 0-2.95.592-4.025 1.667a5.7 5.7 0 0 0 0 8.05 5.68 5.68 0 0 0 4.025 1.664 5.68 5.68 0 0 0 4.026-1.664m-5.32-5.32a1.82 1.82 0 0 1 1.294-.536 1.833 1.833 0 0 1 1.295 3.126 1.833 1.833 0 0 1-2.59 0 1.834 1.834 0 0 1 0-2.59"/><path fill="#3BB77E" d="M19.98 50.12a1.93 1.93 0 0 0-2.73 0l-5.485 5.486a1.93 1.93 0 0 0 0 2.73l24.48 24.48c.377.376.871.565 1.365.565s.988-.189 1.365-.565l36.601-36.602a1.93 1.93 0 0 0 0-2.73l-24.48-24.48a1.93 1.93 0 0 0-2.73 0L28.172 39.2a1.93 1.93 0 0 0 2.73 2.73L49.73 23.1l21.75 21.75-33.87 33.87-21.75-21.75 4.12-4.12a1.93 1.93 0 0 0 0-2.73M75.224 55.01c-.509 0-1.007.207-1.365.566a1.95 1.95 0 0 0-.566 1.365c0 .508.207 1.006.566 1.365.359.36.856.566 1.365.566.507 0 1.005-.207 1.364-.566s.566-.857.566-1.365c0-.507-.207-1.006-.566-1.365a1.95 1.95 0 0 0-1.364-.565"/><path fill="#3BB77E" d="M25.44 47.39c.36-.36.566-.856.566-1.366a1.94 1.94 0 0 0-.567-1.365 1.94 1.94 0 0 0-1.364-.565c-.508 0-1.006.206-1.365.565-.36.36-.566.858-.566 1.365 0 .51.206 1.006.566 1.365a1.931 1.931 0 0 0 2.729 0"/></g></g></g><defs><clipPath id="a"><path fill="#fff" d="M.781.19h100v100h-100z"/></clipPath><clipPath id="b"><path fill="#fff" d="M.781.19h100v100h-100z"/></clipPath></defs></svg>
